**kern	**kern	**dynam
*part1	*part1	*part1
*staff2	*staff1	*
*I"Piano	*	*
*clefF4	*clefG2	*
*k[f#c#g#d#]	*k[f#c#g#d#]	*
=1	=1	=1
!	!	!LO:DY:a
(2.CCn	8r	sf
.	(8eeL 8ggn	.
.	8gn	.
.	8ee	.
.	8e	.
.	8ccnJ	.
=	=	=
2.Cn)	8cnL	>
.	8gn	.
.	8A#X	.
.	8e	.
.	8Gn	.
.	8A#J)	.
=	=	=
(8BBBL	8r	.
8BB	8bL	.
8EJ)	8B	]
8r	8g#X	.
4r	8B	.
.	8eJ	.
=	=	=
(8BBL	8r	p
8E	(8gg#L	.
8G#J)	8g#	.
8r	8ee	.
4r	8g#	.
.	8bJ)	.
=	=	=
(8BBL	8r	.
8F#	(8aaL	.
8BJ)	8a	.
8r	8ff#	.
4r	8a	.
.	8dd#J)	.
=	=	=
*	*^	*
!	!	!	!LO:DY:a
(2.CCn	4r	4ryy	sf
!	!	!	!LO:DY:a
.	(4e	8eL	>
.	.	8Gn 8A#X	.
.	4f#	8f#	.
.	.	8GnJ 8A#X	.
=	=	=	=
2.Cn)	4gn	8gnL	.
.	.	8Gn< 8A#X<	.
.	4f#	8f#	.
.	.	8Gn< 8A#X<	.
.	4e)	8e	]
.	.	8GnJ< 8A#X<	.
*	*v	*v	*
=	=	=
*-	*-	*-
!!!system-decoration: {(s1,s2)}
!!!RDF**kern: < = below
